assets/sonr-icons/login.svg

<svg xmlns="http://www.w3.org/2000/svg" width="24" height="24" fill="none" viewBox="0 0 24 24"><path fill="#000" d="M11 20C11 19.448 11.448 19 12 19H15.2C16.057 19 16.639 18.999 17.089 18.962C17.528 18.926 17.751 18.861 17.908 18.781C18.285 18.589 18.591 18.283 18.782 17.907C18.862 17.75 18.927 17.527 18.963 17.088C19 16.638 19 16.055 19 15.199V8.79902C19 7.94202 18.999 7.36002 18.963 6.91002C18.927 6.47102 18.862 6.24802 18.782 6.09102C18.59 5.71502 18.284 5.40902 17.908 5.21702C17.751 5.13702 17.528 5.07202 17.089 5.03602C16.639 4.99902 16.056 4.99902 15.2 4.99902H12C11.448 4.99902 11 4.55102 11 3.99902C11 3.44702 11.448 2.99902 12 2.99902H15.241C16.046 2.99902 16.71 2.99902 17.252 3.04302C17.814 3.08902 18.33 3.18802 18.816 3.43402C19.568 3.81702 20.18 4.42902 20.564 5.18202C20.811 5.66702 20.91 6.18402 20.955 6.74602C20.999 7.28702 20.999 7.95102 20.999 8.75702V15.239C20.999 16.044 20.999 16.708 20.955 17.25C20.909 17.812 20.81 18.329 20.564 18.815C20.181 19.567 19.569 20.179 18.816 20.563C18.331 20.81 17.814 20.909 17.252 20.954C16.71 20.998 16.047 20.998 15.241 20.998H12C11.448 20.998 11 20.55 11 19.998V20Z"/><path fill="#000" d="M4 13C3.448 13 3 12.552 3 12C3 11.448 3.448 11 4 11H12.586L11.293 9.70703C10.902 9.31603 10.902 8.68303 11.293 8.29203C11.684 7.90103 12.317 7.90103 12.708 8.29203L15.708 11.292C16.099 11.683 16.099 12.316 15.708 12.707L12.708 15.707C12.317 16.098 11.684 16.098 11.293 15.707C10.902 15.316 10.902 14.683 11.293 14.292L12.586 12.999H4V13Z"/></svg>

<svg xmlns="http://www.w3.org/2000/svg" width="24" height="24" fill="none"><path fill="currentColor" d="M11 20a1 1 0 0 1 1-1h3.2c.857 0 1.439-.001 1.889-.038.439-.036.662-.101.819-.181.377-.192.683-.498.874-.874.08-.157.145-.38.181-.819.037-.45.037-1.033.037-1.889v-6.4c0-.857-.001-1.439-.037-1.889-.036-.439-.101-.662-.181-.819a2 2 0 0 0-.874-.874c-.157-.08-.38-.145-.819-.181-.45-.037-1.033-.037-1.889-.037H12a1 1 0 0 1 0-2h3.241c.805 0 1.469 0 2.011.044.562.046 1.078.145 1.564.391a4 4 0 0 1 1.748 1.748c.247.485.346 1.002.391 1.564.044.541.044 1.205.044 2.011v6.482c0 .805 0 1.469-.044 2.011-.046.562-.145 1.079-.391 1.565a4 4 0 0 1-1.748 1.748c-.485.247-1.002.346-1.564.391-.542.044-1.205.044-2.011.044H12a1 1 0 0 1-1-1z"/><path fill="currentColor" d="M4 13a1 1 0 0 1 0-2h8.586l-1.293-1.293a1 1 0 1 1 1.415-1.415l3 3a1 1 0 0 1 0 1.415l-3 3a1 1 0 1 1-1.415-1.415l1.293-1.293z"/></svg>
